public/images/renaissance/logo-dark.svg

<svg width="181" height="16" viewBox="0 0 181 16" fill="none" xmlns="http://www.w3.org/2000/svg">
<path d="M0 0.265625H5.13323C8.76365 0.265625 10.7769 1.88277 10.7769 5.06806C10.7769 7.74698 9.35987 9.27429 6.75038 9.71533L10.9566 15.7592H9.6294L5.51301 9.8256H1.06177V15.7552H0V0.265625ZM5.44359 8.76383C8.09801 8.76383 9.64982 7.5918 9.64982 5.06806C9.64982 2.63417 8.10209 1.32739 5.44359 1.32739H1.06177V8.76383H5.44359Z" fill="#3F4951"/>
<path d="M17.5156 0.265625H27.3655V1.32739H18.5774V7.32636H26.9449V8.38813H18.5774V14.6975H27.3655V15.7592H17.5156V0.265625Z" fill="#3F4951"/>
<path d="M33.418 0.265625H35.1454L43.954 12.8598V0.265625H45.6569V15.7592H43.909L35.1005 3.20998V15.7592H33.418V0.265625Z" fill="#3F4951"/>
<path d="M56.8807 0.265625H58.7837L64.8276 15.7592H63.0104L61.5933 12.1942H54.0262L52.6541 15.7592H50.8164L56.8807 0.265625ZM60.9767 10.5811L57.8118 2.43815L54.6918 10.5811H60.9767Z" fill="#3F4951"/>
<path d="M69.9922 0.265625H71.6747V15.7592H69.9922V0.265625Z" fill="#3F4951"/>
<path d="M77.457 13.0352L79.2498 11.222C80.2013 12.4635 81.4876 13.611 83.9665 13.611C85.9348 13.611 86.9108 12.6799 86.9108 11.5079C86.9108 10.5115 86.2901 9.64982 84.4769 9.33945L82.5943 9.02909C79.7602 8.56354 78.0573 6.97089 78.0573 4.44716C78.0573 1.68248 80.5811 0 83.5254 0C86.2697 0 88.0175 1.17202 89.259 2.47881L87.4213 4.42674C86.5596 3.3854 85.3182 2.38896 83.4152 2.38896C81.5122 2.38896 80.7158 3.45073 80.7158 4.38182C80.7158 5.42316 81.3815 6.15415 83.1742 6.46043L84.722 6.72587C88.042 7.30167 89.5693 9.00458 89.5693 11.463C89.5693 14.0766 87.3805 16 83.6398 16C80.7526 16.0041 78.7393 14.6524 77.457 13.0352Z" fill="#3F4951"/>
<path d="M94.7188 13.0352L96.5115 11.222C97.463 12.4635 98.7494 13.611 101.228 13.611C103.197 13.611 104.173 12.6799 104.173 11.5079C104.173 10.5115 103.552 9.64982 101.739 9.33945L99.8561 9.02909C97.022 8.56354 95.3191 6.97089 95.3191 4.44716C95.3191 1.68248 97.8428 0 100.787 0C103.531 0 105.279 1.17202 106.521 2.47881L104.683 4.42674C103.821 3.3854 102.58 2.38896 100.677 2.38896C98.7739 2.38896 97.9776 3.45073 97.9776 4.38182C97.9776 5.42316 98.6391 6.15415 100.436 6.46043L101.984 6.72587C105.304 7.30167 106.831 9.00458 106.831 11.463C106.831 14.0766 104.642 16 100.901 16C98.0184 16.0041 96.0051 14.6524 94.7188 13.0352Z" fill="#3F4951"/>
<path d="M117.025 0.265625H120.17L126.234 15.7592H122.824L121.587 12.7046H115.588L114.371 15.7592H110.961L117.025 0.265625ZM120.525 9.78476L118.598 4.73728L116.674 9.78476H120.525Z" fill="#3F4951"/>
<path d="M131.043 0.265625H135.004L141.269 10.7567V0.265625H144.544V15.7592H140.603L134.339 5.31309V15.7592H131.043V0.265625Z" fill="#3F4951"/>
<path d="M150.094 7.99182C150.094 3.47523 153.479 0 158.041 0C160.85 0 162.733 1.08626 164.17 2.76467L161.626 5.37824C160.764 4.38182 159.989 3.65083 158.241 3.65083C156.027 3.65083 154.255 5.48851 154.255 7.98774C154.255 10.5319 155.982 12.3491 158.282 12.3491C160.119 12.3491 161.071 11.5732 162.067 10.2011L164.501 12.9005C163.064 14.828 160.871 16 157.951 16C153.369 16.0041 150.094 12.5492 150.094 7.99182Z" fill="#3F4951"/>
<path d="M169.188 0.265625H180.875V3.8062H173.214V6.15433H180.495V9.56015H173.214V12.2187H180.875V15.7592H169.188V0.265625Z" fill="#3F4951"/>
</svg>

<svg fill="none" viewBox="0 0 181 16"><path fill="#3F4951" d="M0 .266h5.133c3.63 0 5.644 1.617 5.644 4.802 0 2.679-1.417 4.206-4.027 4.647l4.207 6.044H9.629L5.513 9.826H1.062v5.93H0V.265zm5.444 8.498c2.654 0 4.206-1.172 4.206-3.696 0-2.434-1.548-3.74-4.206-3.74H1.062v7.436h4.382zM17.516.266h9.85v1.061h-8.789v6h8.368v1.061h-8.368v6.31h8.788v1.061h-9.85V.266zm15.902 0h1.727l8.809 12.594V.266h1.703v15.493h-1.748L35.1 3.21v12.55h-1.682V.265zm23.463 0h1.903l6.044 15.493H63.01l-1.417-3.565h-7.567l-1.372 3.565h-1.838L56.881.266zm4.096 10.315l-3.165-8.143-3.12 8.143h6.285zM69.992.266h1.683v15.493h-1.683V.266zm7.465 12.77l1.793-1.814c.951 1.242 2.238 2.389 4.716 2.389 1.969 0 2.945-.931 2.945-2.103 0-.996-.62-1.858-2.434-2.169l-1.883-.31c-2.834-.465-4.537-2.058-4.537-4.582C78.057 1.682 80.581 0 83.525 0c2.745 0 4.492 1.172 5.734 2.479l-1.838 1.948c-.861-1.042-2.103-2.038-4.006-2.038s-2.7 1.062-2.7 1.993c0 1.041.666 1.772 2.46 2.078l1.547.266c3.32.576 4.847 2.279 4.847 4.737 0 2.614-2.189 4.537-5.93 4.537-2.886.004-4.9-1.348-6.182-2.965zm17.262 0l1.793-1.814c.951 1.242 2.237 2.389 4.716 2.389 1.969 0 2.945-.931 2.945-2.103 0-.996-.621-1.858-2.434-2.169l-1.883-.31c-2.834-.465-4.537-2.058-4.537-4.582C95.32 1.682 97.843 0 100.787 0c2.744 0 4.492 1.172 5.734 2.479l-1.838 1.948c-.862-1.042-2.103-2.038-4.006-2.038s-2.7 1.062-2.7 1.993c0 1.041.662 1.772 2.459 2.078l1.548.266c3.32.576 4.847 2.279 4.847 4.737 0 2.614-2.189 4.537-5.93 4.537-2.883.004-4.896-1.348-6.182-2.965zM117.025.265h3.145l6.064 15.493h-3.41l-1.237-3.054h-5.999l-1.217 3.054h-3.41L117.025.266zm3.5 9.519l-1.927-5.048-1.924 5.048h3.851zm10.518-9.52h3.961l6.265 10.492V.266h3.275v15.493h-3.941l-6.264-10.446V15.76h-3.296V.266zm19.051 7.727c0-4.517 3.385-7.992 7.947-7.992 2.809 0 4.692 1.086 6.129 2.765l-2.544 2.613c-.862-.996-1.637-1.727-3.385-1.727-2.214 0-3.986 1.838-3.986 4.337 0 2.544 1.727 4.361 4.027 4.361 1.837 0 2.789-.776 3.785-2.148l2.434 2.7c-1.437 1.927-3.63 3.099-6.55 3.099-4.582.004-7.857-3.45-7.857-8.008zM169.188.266h11.687v3.54h-7.661v2.348h7.281V9.56h-7.281v2.659h7.661v3.54h-11.687V.266z"/></svg>
